!!!ONB: MCCC : IJH0410_02 : Extracted Monophonic Melody
!!!COM: Haydn, Joseph
!!!OPR: String Quartet in B-flat major
!!!OMV: 2
!!!SCT: Hob.III:44 ; Op.50 No.1
!!!ODT: 1787///
**kern
*thru
*k[b-e-a-]
*E-:
*clefF
*M6/8
8B-
=1
4e-
8g
4b-
32a
32b-
32cc
32b-
=2
8b-
8d
8d
8d
8r
8B-
=3
4f
8a-
4cc
32b-
32a-
32g
32f
=4
8g
8b-
8b-
8b-
8r
8ee-
=5
8dd
8b-
8ee-
8a-
8f
8g
=6
8cc
8a-
8f
8e-
8d
8ff
=7
4a-
16a-
32g
32a-
8g
8e-
8gg
=8
8ee-
8cc
8a
8b-
8r
8ee-[
=9
8ee-]
8dd
4cc
8b-
8a-[
=10
8a-]
8g
8f
8b-
8r
8ee-
=11
8f
8r
8cc
8e-
8r
8g-
=12
8B-
8c
8d
8e-
4r
=13
2.r
=14
8r
8r
32aa
32bb-
32ccc
32bb-
8bb-
8dd
8dd
=15
4dd
8r
32d
32e-
32f
32g
32a-
32b-
32cc
32dd
32ee-
32ff
32gg
32aa-
=16
4gg
4.r
32aa
32bb-
32ccc
32bb-
=17
8bb-
8r
32aa
32bb-
32ccc
32bb-
8bb-
8r
32aa
32bb-
32ccc
32bb-
=18
32bb
32ccc
32bb
32ccc
32bb-
32aa-
32gg
32ff
32ee
32ff
32aa-
32ff
8ee-
8dd
8r
=19
32B-
32c
32d
32e-
32f
32g
32a-
32b-
32cc
32dd
32ee-
32ff
8gg
4r
=20
32f
32g
32a
32b-
32cc
32dd
32ee-
32ff
32gg
32aa
32bb-
32ccc
8bb-
4r
=21
2.r
=22
8r
8r
8d
8e-
4r
=23
8e-
4r
8g-
4r
=24
4.A-
8G
8r
8b-
=25
4ee-
8gg-
4bb-
32aa
32bb-
32ccc-
32bb-
=26
8bb-
8dd
8dd
8dd
8r
8b-
=27
4ff
8aa-
4ccc-
32bb-
32aa-
32gg-
32ff
=28
8gg-
8bb-
8bb-
8bb-
8r
8eee-
=29
8ddd
8bb-
8eee-
8ddd
8bb-
8eee-
=30
8ggg-
8eee-
8aa
8bb-
8r
32bb-
32aa-
32bb-
32ccc-
=31
8ddd-
8bb-
8gg-
16.ff
32gg-
32ff
32gg-
32aa-
32gg-
32bb-
32aa-
32ccc-
32bb-
=32
16ddd-
16ccc-
16bb-
16aa-
16gg-
16ff
8.gg-
16aa-
32bb-
32ccc-
32bb-
32ccc-
=33
8bb-
8dd
32bb-
32ccc-
32bb-
32ccc-
8bb-
8ee-
32bb-
32ccc-
32bb-
32ccc-
=34
8ddd-
8bb-
8gg
8.aa-
32ddd-
32ccc-
32bb-
32aa-
32gg-
32ff
=35
8.ee-
16ff
8dd
8ee-
8r
8B-
=36
4e-
8g
4b-
32a
32b-
32cc
32b-
=37
8b-
8d
8d
8d
8r
8B-
=38
4f
8a-
4cc
32b-
32a-
32g
32f
=39
8g
8b-
8b-
8b-
8r
8ee-
=40
8dd
8b-
8ee-
8a-
8f
8g
=41
32e
32f
32g
32f
32a-
32g
32b-
32a-
32b
32cc
32a-
32f
8e-
8d
8ff
=42
4a-
16a-
32g
32a-
8g
8e-
8gg
=43
8ee-
8cc
8a
8b-
8r
32ee-
32bb-
32gg
32ee-
=44
16ee-
16dd
16dd
16dd
32cc
32gg
32ee-
32cc
16cc
16b
16b-
16b-
32a-
32ee-
32cc
32a-
=45
16a-
16g
16g
16f
32f
32a-
32g
32f
8b-
16r
32dd
32ee-
32dd
32ee-
32dd
32ee-
=46
8f
16r
32b
32cc
32b
32cc
32b
32cc
8e-
16r
32f
32g-
32f
32g-
32f
32g-
=47
8B-
8c
8d
8e-
8r
8bb-
=48
2bb-[
8bb-]
32bb-
32ccc
32ddd
32eee-
=49
8eee-
16ddd
16eee-
16fff
16ggg
8aaa-
8r
8ggg
=50
8fff
8r
8eee-
8ddd
8r
8bb-
=51
4bb-
8aa-
4aa-
8gg
=52
4gg
8ff
4ff
8ee-
=53
32ee-
32dd
32ff
32ee-
32gg
32ff
32ee-
32dd
32cc
32b-
32a
32cc
32ee-
32dd
32cc
32b-
32a
32g
32f
32e-
32d
32c
32B-
32A
=54
32B-
32A
32c
32B-
32d
32c
32e-
32d
32f
32e-
32g
32f
32a-
32b-
32cc
32b-
32a-
32b-
32g
32a-
32f
32g
32e-
32f
=55
16d
16f
16a-
16b-
16dd
16ff
8aa-
8ff
8dd
=56
8cc-
8a-
8f
4d
8ee-
=57
8f
8r
8cc
8e-
8r
8g-
=58
8B-
8c
8d
8e-
16r
32dd
32ee-
16ee-
32dd
32cc
=59
4b-[
32b-]
32cc
32b-
32a-
8g
16r
32dd
32ee-
16ee-
32dd
32cc
=60
4b-
32b-
32a-
32g
32f
8e-
8r
8g
=61
8e-
8e-
8e-
8e-
4r
==
*-
